public/img/gmail.svg

<svg height="24" viewBox="0 0 24 24" width="24" xmlns="http://www.w3.org/2000/svg"><path d="m2.5 20.25h3.5v-8.5l-5-3.75v10.75a1.5 1.5 0 0 0 1.5 1.5" fill="#4285f4"/><path d="m18 20.25h3.5a1.5 1.5 0 0 0 1.5-1.5v-10.75l-5 3.75" fill="#34a853"/><path d="m18 5.25v6.5l5-3.75v-2a2.25 2.25 0 0 0 -3.6-1.8" fill="#fbbc04"/><path d="m6 11.75v-6.5l6 4.5 6-4.5v6.5l-6 4.5" fill="#ea4335"/><path d="m1 6v2l5 3.75v-6.5l-1.4-1a2.25 2.25 0 0 0 -3.6 1.75" fill="#c5221f"/></svg>

<svg id="ae110486-9c88-40a9-a12b-a52ea4bc3c30" data-name="Layer 1" xmlns="http://www.w3.org/2000/svg" width="24" height="24" viewBox="0 0 24 24">
  <defs>
    <style>
      .bcae5f21-259b-4b19-8c1a-f835f73856c8 {
        fill: #4285f4;
      }

      .e3d0b282-0f27-4fe4-96ad-0738a562ba7e {
        fill: #34a853;
      }

      .a501e534-5bff-46ab-85cd-8303d1d3afe0 {
        fill: #fbbc04;
      }

      .af666525-3130-4b94-a1ad-6bb09c96184f {
        fill: #ea4335;
      }

      .ea11fd36-d25d-42a0-bb79-3a008e1a161e {
        fill: #c5221f;
      }
    </style>
  </defs>
  <g>
    <path class="bcae5f21-259b-4b19-8c1a-f835f73856c8" d="M2.5,20.25H6v-8.5L1,8V18.75a1.5,1.5,0,0,0,1.5,1.5"/>
    <path class="e3d0b282-0f27-4fe4-96ad-0738a562ba7e" d="M18,20.25h3.5a1.5,1.5,0,0,0,1.5-1.5V8l-5,3.75"/>
    <path class="a501e534-5bff-46ab-85cd-8303d1d3afe0" d="M18,5.25v6.5L23,8V6a2.25,2.25,0,0,0-3.6-1.8"/>
    <path class="af666525-3130-4b94-a1ad-6bb09c96184f" d="M6,11.75V5.25l6,4.5,6-4.5v6.5l-6,4.5"/>
    <path class="ea11fd36-d25d-42a0-bb79-3a008e1a161e" d="M1,6V8l5,3.75V5.25l-1.4-1A2.25,2.25,0,0,0,1,6"/>
  </g>
</svg>
